X: 14190
T: Frost Is All Over, The
R: jig
M: 6/8
K: Dmajor
|:dfd edB|ADD GFE|DAA AFA|Bcd ecA|
dfd edB|ADD GFE|DAA FAA|1 BcA d2A:|2 BcA d2e||
~f3 afd|~f3 afd|gfg bgd|gfg bag|
~f3 afd|~f3 afd|gfg bag|fae d2e|
fdf afd|Adf afd|gfg bgd|efg bag|
fdf afd|Adf afd|gfg bag|fae d2A||

